X:1
T:Con-jig-aison
M:6/8
L:1/8
Q:120
C:(c) Greg Anderson, 25 Nov 1999
R:Jig
H:Two words about learning to speak french: verb conjugation
K:Bm
F|:Bcd FBD|EDC B,2 B,|CDE DCA,|B,CD FBc|dcB FED|
EDC B,2 D|!CEE F2 D|1B,DC B,2 F:|2B,DC B,2 D|:CA,A, A,B,C|
DB,F DEF|EGE CDE|!FGD B,2 D|CA,A, A,B,C|DB,F DEF|
GFc Bdc|1BFD B,2 D:|2BFD B,2 F||
